X:92
T:Yellow Wrist
C:Athena Tergis
S:Bernie Waugh
R:Reel
M:4/4
L:1/8
K:D minor
|:\
"Dm"A,CDC D3E|"F"FEFG AGFG|"Am"Ac2A cAGA|"Dm"d2dc d3e|
"Bb"fedc d2ed|"Am"cAGc AE3|"C"AGA=B cdcA|1"Am"GEcE FEDC:|2\
"Am"GEcE "Dm"EDDc||
"F"Ac2c- cAGA|"Dm"d2dc dcAc|"Bb"defe fede|"Am"a3a- ageg|
"Gm"agecd2ed|"Am"cAGc AE3|"C"AGA=B cdcA|"Am"GEcE "D"EDDc|
"F"Ac2c- cAGA|"Dm"d2dc dcAc|"Bb"defe fede|"Am"a3a- ageg|
"Gm"agec dfec|"Dm"dcAF "Eb"G3A-|"F"AGA=B "C"cdcA|"Am"GEcE "Dm"EDD2|]

